Assets/pieces/Progressor_Black.svg

<svg xmlns="http://www.w3.org/2000/svg" viewBox="0 0 79.23 73.04"><defs><style>.cls-1{fill:#fff;stroke:#000;}</style></defs><title>Progressor_Black</title><g id="Слой_2" data-name="Слой 2"><g id="Слой_1-2" data-name="Слой 1"><path d="M78.73,58.31A26.67,26.67,0,0,1,64,68.62C45.43,74.28,27,73.56,8.57,68.05000000000001C2.4700000000000006,66.22000000000001,0.5700000000000003,63.22000000000001,0.5,56.65000000000001S0.51,43.38,0.51,37L39.35,0.68L77,35.78L78.71,42.31ZM4.12,49.86A23.43,23.43,0,0,0,3.7,52.23C3.1,62.099999999999994,4.7,64.77,14.48,66.49A169.29,169.29,0,0,0,40.16,69.24C50.16,69.46,60.03,67.80999999999999,69.09,63.03999999999999C75.32000000000001,59.74999999999999,76.37,57.19999999999999,74.34,49.919999999999995C51.12,57.86,27.85,57.8,4.12,49.86ZM72.6,36.55C62.699999999999996,26.15,52.269999999999996,17.15,42.06999999999999,7.449999999999996C40.22999999999999,13.449999999999996,40.629999999999995,41.13999999999999,42.47999999999999,44.38999999999999L55.87999999999999,41.559999999999995L61.82999999999999,49.75999999999999L69.91999999999999,47.75999999999999L65.69,40ZM37.36,8.67L36.36,8C26.21,17.2,16,26.33,5.89,36.73C8.03,37.54,9.12,37.849999999999994,10.09,38.36A28,28,0,0,1,12.89,40.36L8.89,47.84L17.14,49.720000000000006L22.9,41.60000000000001L37.4,44.49000000000001ZM58,50.31L54.44,45C49.44,46.21,44.44,48.34,39.54,48.33S29.36,46.18,24.1,45L21.17,50.42A78.91,78.91,0,0,0,58,50.31ZM7.8,42.56L6.21,41.07L4,43.84L5.25,45ZM72.2,41.07L71,42.35A33,33,0,0,0,73.55,44.53A15,15,0,0,0,74.71,43.27Z" fill="#fff" stroke="#000" /><path d="M4.12,49.86C27.85,57.8,51.12,57.86,74.34,49.92C76.34,57.2,75.34,59.75,69.09,63.04C60.03,67.81,50.160000000000004,69.46,40.160000000000004,69.24A169.29,169.29,0,0,1,14.480000000000004,66.49C4.74,64.77,3.1,62.1,3.7,52.23A23.43,23.43,0,0,1,4.12,49.86Z"/><path d="M72.6,36.55L65.69,40L69.92,47.74L61.83,49.74L55.879999999999995,41.540000000000006L42.48,44.370000000000005C40.629999999999995,41.120000000000005,40.23,13.470000000000006,42.07,7.430000000000007C52.27,17.15,62.7,26.15,72.6,36.55Z"/><path d="M37.36,8.67V44.46L22.86,41.57L17.1,49.69L8.85,47.81L12.85,40.33A28,28,0,0,0,10.05,38.33C9.05,37.82,7.99,37.51,5.8500000000000005,36.699999999999996C16,26.33,26.21,17.2,36.37,8Z"/><path d="M58,50.31A78.91,78.91,0,0,1,21.14,50.370000000000005L24.1,45C29.36,46.23,34.45,48.33,39.54,48.35S49.43,46.230000000000004,54.44,45.02Z"/><path d="M7.8,42.56L5.25,45L4,43.84L6.21,41.07Z"/><path d="M72.2,41.07L74.72,43.27A15,15,0,0,1,73.56,44.53A33,33,0,0,1,71,42.35Z"/></g></g></svg>

<svg xmlns="http://www.w3.org/2000/svg" viewBox="0 0 79.23 73.04"><defs><style>.cls-1{fill:#fff;stroke:#000;}</style></defs><title>Progressor_Black</title><g id="Слой_2" data-name="Слой 2"><g id="Слой_1-2" data-name="Слой 1"><path class="cls-1" d="M78.73,58.31A26.67,26.67,0,0,1,64,68.62c-18.57,5.66-37,4.94-55.43-.57-6.1-1.83-8-4.83-8.07-11.4S.51,43.38.51,37L39.35.68,77,35.78l1.71,6.53ZM4.12,49.86a23.43,23.43,0,0,0-.42,2.37c-.6,9.87,1,12.54,10.78,14.26a169.29,169.29,0,0,0,25.68,2.75c10,.22,19.87-1.43,28.93-6.2,6.23-3.29,7.28-5.84,5.25-13.12C51.12,57.86,27.85,57.8,4.12,49.86ZM72.6,36.55c-9.9-10.4-20.33-19.4-30.53-29.1-1.84,6-1.44,33.69.41,36.94l13.4-2.83,5.95,8.2,8.09-2L65.69,40ZM37.36,8.67l-1-.67C26.21,17.2,16,26.33,5.89,36.73c2.14.81,3.23,1.12,4.2,1.63a28,28,0,0,1,2.8,2l-4,7.48,8.25,1.88,5.76-8.12,14.5,2.89ZM58,50.31,54.44,45c-5,1.21-10,3.34-14.9,3.33S29.36,46.18,24.1,45l-2.93,5.42A78.91,78.91,0,0,0,58,50.31ZM7.8,42.56,6.21,41.07,4,43.84,5.25,45Zm64.4-1.49L71,42.35a33,33,0,0,0,2.55,2.18,15,15,0,0,0,1.16-1.26Z"/><path d="M4.12,49.86c23.73,7.94,47,8,70.22.06,2,7.28,1,9.83-5.25,13.12-9.06,4.77-18.93,6.42-28.93,6.2a169.29,169.29,0,0,1-25.68-2.75C4.74,64.77,3.1,62.1,3.7,52.23A23.43,23.43,0,0,1,4.12,49.86Z"/><path d="M72.6,36.55,65.69,40l4.23,7.74-8.09,2-5.95-8.2-13.4,2.83c-1.85-3.25-2.25-30.9-.41-36.94C52.27,17.15,62.7,26.15,72.6,36.55Z"/><path d="M37.36,8.67V44.46l-14.5-2.89L17.1,49.69,8.85,47.81l4-7.48a28,28,0,0,0-2.8-2c-1-.51-2.06-.82-4.2-1.63C16,26.33,26.21,17.2,36.37,8Z"/><path d="M58,50.31a78.91,78.91,0,0,1-36.86.06L24.1,45c5.26,1.23,10.35,3.33,15.44,3.35s9.89-2.12,14.9-3.33Z"/><path d="M7.8,42.56,5.25,45,4,43.84l2.21-2.77Z"/><path d="M72.2,41.07l2.52,2.2a15,15,0,0,1-1.16,1.26A33,33,0,0,1,71,42.35Z"/></g></g></svg>
